!!!COM:	Bach, Johann Sebastian
!!!CDT:	1685/02/21/-1750/07/28/
!!!OTL@@DE:	Christus, der ist mein Leben
!!!SCT:	BWV 281
!!!PC#:	6
!!!AGN:	chorale
**kern	**kern	**kern	**kern
*ICvox	*ICvox	*ICvox	*ICvox
*Ibass	*Itenor	*Ialto	*Isoprn
*I"Bass	*I"Tenor	*I"Alto	*I"Soprano
*clefF4	*clefGv2	*clefG2	*clefG2
*k[b-]	*k[b-]	*k[b-]	*k[b-]
*F:	*F:	*F:	*F:
*M4/4	*M4/4	*M4/4	*M4/4
*met(c)	*met(c)	*met(c)	*met(c)
*MM100	*MM100	*MM100	*MM100
4FF	4A	4c	4f
=1	=1	=1	=1
4F	4c	4f	4a
4E	4c	4g	4g
4E-	4c	4f	4a
4D	4d	4f	4b-
=2	=2	=2	=2
8CL	4G	8eL	2cc
8D	.	8f	.
8E	4c	8g	.
8CJ	.	8eJ	.
4F;	4c;	4f;	4a;
4BB-	4B-	4f	4dd
=3	=3	=3	=3
4AA	4c	4.f	4cc
4GG	8dL	.	4b-
.	8B-J	8e	.
8FFL	4c	4.f	4a
8AAJ	.	.	.
4C	4c	.	4g
.	.	8e	.
=4	=4	=4	=4
2FF;	2c;	2f;	2a;
4r	4ry	4ry	4r
4A	4f	[4a	4cc
=5	=5	=5	=5
4BB	4f	8aL]	4dd
.	.	[8gJ	.
4C	[4e	8gL]	4ee
.	.	16ccLL	.
.	.	16b-XJJ	.
8DL	8eL]	4a	4ff
8FJ	8dJ	.	.
8AL	[4c	4a	4ee
8GJ	.	.	.
=6	=6	=6	=6
8FL	4c]	4a	2dd
8DJ	.	.	.
4G	4B	4g	.
4C;	4e;	4g;	4cc;
4FF	4c	[4f	4a
=7	=7	=7	=7
4GG	4B-X	8fL]	4b-
.	.	8eJ	.
4AA	4c	4f	4a
4BB-	4d	4f	4g
4C	8.cL	4e	4g
.	16B-Jk	.	.
=8	=8	=8	=8
2.FF;	2.A;	2.c;	2.f;
==	==	==	==
*-	*-	*-	*-
!!!hum2abc: -Q ''
!!!title: @{PC#}. @{OTL@@DE}
!!!YOR1: 371 vierstimmige Choralges&auml;nge von Johann Sebastian Bach, 
!!!YOR2: 4th ed. by Alfred D&ouml;rffel (Leipzig: Breitkopf und H&auml;rtel, 
!!!YOR2: c.1875). 178 pp. Plate "V.A.10".  reprint: J.S. Bach, 371 Four-Part 
!!!YOR4: Chorales (New York: Associated Music Publishers, Inc., c.1940).
!!!SMS: B&H, 4th ed, Alfred D&ouml;rffel, c.1875, plate V.A.10
!!!EED:  Craig Stuart Sapp
!!!EEV:  2009/05/22
